; HEADER_BLOCK_START
; generated by Creality_Print V5.1.6.10470 on 2025-01-14 at 16:00:46
; total layer number: 225
; filament_density: 1.24
; filament_diameter: 1.75
; max_z_height: 45.00
; HEADER_BLOCK_END

; MINX = 104.93
; MINY = 104.93
; MINZ = 0.00
; MAXX = 147.33
; MAXY = 115.27
; MAXZ = 45.00

; THUMBNAIL_BLOCK_START

;
; THUMBNAIL_BLOCK_END

; THUMBNAIL_BLOCK_START

;
; THUMBNAIL_BLOCK_END

; external perimeters extrusion width = 0.42mm
; perimeters extrusion width = 0.45mm
; infill extrusion width = 0.45mm
; solid infill extrusion width = 0.42mm
; top infill extrusion width = 0.42mm
; support material extrusion width = 0.42mm
; first layer extrusion width = 0.50mm

; external perimeters extrusion width = 0.42mm
; perimeters extrusion width = 0.45mm
; infill extrusion width = 0.45mm
; solid infill extrusion width = 0.42mm
; top infill extrusion width = 0.42mm
; support material extrusion width = 0.42mm
; first layer extrusion width = 0.50mm

; EXECUTABLE_BLOCK_START
EXCLUDE_OBJECT_DEFINE NAME=Tube.stl_id_0_copy_0 CENTER=110,110 POLYGON=[[104.925,110],[104.955,109.451],[105.044,108.909],[105.191,108.38],[105.394,107.869],[105.651,107.384],[105.96,106.929],[106.316,106.51],[106.715,106.132],[107.152,105.799],[107.623,105.516],[108.122,105.285],[108.642,105.11],[109.179,104.992],[109.725,104.932],[110.275,104.932],[110.821,104.992],[111.358,105.11],[111.878,105.285],[112.377,105.516],[112.848,105.799],[113.285,106.132],[113.684,106.51],[114.04,106.929],[114.349,107.384],[114.606,107.869],[114.809,108.38],[114.956,108.909],[115.045,109.451],[115.075,110],[115.045,110.549],[114.956,111.091],[114.809,111.62],[114.606,112.131],[114.349,112.616],[114.04,113.071],[113.684,113.49],[113.285,113.868],[112.848,114.201],[112.377,114.484],[111.878,114.715],[111.358,114.89],[110.821,115.008],[110.275,115.068],[109.725,115.068],[109.179,115.008],[108.642,114.89],[108.122,114.715],[107.623,114.484],[107.152,114.201],[106.715,113.868],[106.316,113.49],[105.96,113.071],[105.651,112.616],[105.394,112.131],[105.191,111.62],[105.044,111.091],[104.955,110.549],[104.925,110]]
EXCLUDE_OBJECT_DEFINE NAME=Tube.stl_id_1_copy_0 CENTER=142.251,110.205 POLYGON=[[137.176,110.205],[137.206,109.656],[137.295,109.114],[137.442,108.585],[137.645,108.074],[137.902,107.589],[138.211,107.134],[138.567,106.715],[138.966,106.337],[139.403,106.004],[139.874,105.721],[140.373,105.49],[140.893,105.315],[141.43,105.197],[141.976,105.137],[142.526,105.137],[143.072,105.197],[143.609,105.315],[144.129,105.49],[144.628,105.721],[145.099,106.004],[145.537,106.337],[145.935,106.715],[146.291,107.134],[146.6,107.589],[146.857,108.074],[147.06,108.585],[147.207,109.114],[147.296,109.656],[147.326,110.205],[147.296,110.754],[147.207,111.296],[147.06,111.825],[146.857,112.336],[146.6,112.821],[146.291,113.276],[145.935,113.695],[145.537,114.073],[145.099,114.406],[144.628,114.689],[144.129,114.92],[143.609,115.095],[143.072,115.213],[142.526,115.273],[141.976,115.273],[141.43,115.213],[140.893,115.095],[140.373,114.92],[139.874,114.689],[139.403,114.406],[138.966,114.073],[138.567,113.695],[138.211,113.276],[137.902,112.821],[137.645,112.336],[137.442,111.825],[137.295,111.296],[137.206,110.754],[137.176,110.205]]
M73 P0 R13
M106 S0
M106 P2 S0
;TYPE:Custom
M140 S0
M104 S0 
START_PRINT EXTRUDER_TEMP=230 BED_TEMP=50
M141 S35;set chamber_temperature
G90
G21
M83 ; use relative distances for extrusion
; Filament gcode
M106 S0
;LAYER_CHANGE
;Z:0.2
;HEIGHT:0.2
;BEFORE_LAYER_CHANGE
;0.2
G92 E0

;AFTER_LAYER_CHANGE
;0.2
;_SET_FAN_SPEED_CHANGING_LAYER
SET_VELOCITY_LIMIT ACCEL=1000 ACCEL_TO_DECEL=1000
SET_VELOCITY_LIMIT SQUARE_CORNER_VELOCITY=20
; printing object Tube.stl id:0 copy 0
G1 E-.8 F1800
EXCLUDE_OBJECT_START NAME=Tube.stl_id_0_copy_0
G1 Z.4 F30000
G1 X101.996 Y101.966
G1 Z.4
G1 Z.2
G1 E.8 F1800
;TYPE:Brim
;WIDTH:0.5
G1 F3600
G1 X102.393 Y101.588 E.01978
G1 X102.911 Y101.147 E.02457
G1 X103.347 Y100.815 E.01978
G1 X103.91 Y100.433 E.02457
G1 X104.379 Y100.15 E.01978
G1 X104.98 Y99.83 E.02457
G1 X105.477 Y99.6 E.01978
G1 X106.109 Y99.347 E.02457
G1 X106.628 Y99.172 E.01978
G1 X107.284 Y98.989 E.02457
G1 X107.819 Y98.871 E.01978
G1 X108.49 Y98.76 E.02457
G1 X109.035 Y98.7 E.01978
G1 X109.72 Y98.662 E.02478
G1 X110.273 Y98.662 E.01996
G1 X110.947 Y98.699 E.02436
G1 X111.487 Y98.757 E.01961
G1 X112.158 Y98.866 E.02457
G1 X112.693 Y98.983 E.01978
G1 X113.349 Y99.165 E.02457
G1 X113.869 Y99.339 E.01978
G1 X114.501 Y99.59 E.02457
G1 X114.999 Y99.82 E.01978
G1 X115.6 Y100.138 E.02457
G1 X116.07 Y100.42 E.01978
G1 X116.634 Y100.801 E.02457
G1 X117.07 Y101.132 E.01978
G1 X117.589 Y101.572 E.02457
G1 X117.988 Y101.949 E.01978
G1 X118.456 Y102.442 E.02457
G1 X118.811 Y102.86 E.01978
G1 X119.224 Y103.401 E.02457
G1 X119.532 Y103.854 E.01978
G1 X119.883 Y104.437 E.02457
G1 X120.14 Y104.921 E.01978
G1 X120.427 Y105.538 E.02457
G1 X120.63 Y106.047 E.01978
G1 X120.848 Y106.691 E.02457
G1 X120.995 Y107.219 E.01978
G1 X121.142 Y107.884 E.02457
G1 X121.231 Y108.424 E.01978
G1 X121.305 Y109.101 E.02457
G1 X121.336 Y109.648 E.01978
G1 X121.336 Y110.328 E.02457
G1 X121.307 Y110.876 E.01978
G1 X121.234 Y111.552 E.02457
G1 X121.146 Y112.093 E.01978
G1 X121.001 Y112.758 E.02457
G1 X120.855 Y113.286 E.01978
G1 X120.638 Y113.931 E.02457
G1 X120.436 Y114.44 E.01978
G1 X120.151 Y115.058 E.02457
G1 X119.895 Y115.542 E.01978
G1 X119.544 Y116.126 E.02457
G1 X119.237 Y116.58 E.01978
G1 X118.826 Y117.122 E.02457
G1 X118.472 Y117.54 E.01978
G1 X118.004 Y118.034 E.02457
G1 X117.607 Y118.412 E.01978
G1 X117.089 Y118.853 E.02457
G1 X116.653 Y119.185 E.01978
G1 X116.09 Y119.567 E.02457
G1 X115.621 Y119.85 E.01978
G1 X115.02 Y120.17 E.02457
G1 X114.523 Y120.4 E.01978
G1 X113.891 Y120.653 E.02457
G1 X113.372 Y120.828 E.01978
G1 X112.716 Y121.011 E.02457
G1 X112.181 Y121.129 E.01978
G1 X111.51 Y121.24 E.02457
G1 X110.965 Y121.3 E.01978
G1 X110.286 Y121.338 E.02457
G1 X109.738 Y121.338 E.01978
G1 X109.058 Y121.302 E.02457
G1 X108.514 Y121.243 E.01979
G1 X107.842 Y121.134 E.02457
G1 X107.307 Y121.017 E.01978
G1 X106.651 Y120.835 E.02457
G1 X106.131 Y120.661 E.01978
G1 X105.499 Y120.41 E.02457
G1 X105.001 Y120.18 E.01978
G1 X104.4 Y119.862 E.02457
G1 X103.93 Y119.58 E.01978
G1 X103.366 Y119.199 E.02457
G1 X102.93 Y118.868 E.01978
G1 X102.406 Y118.424 E.02478
G1 X102.005 Y118.043 E.01996
G1 X101.541 Y117.554 E.02436
G1 X101.189 Y117.14 E.01961
G1 X100.776 Y116.599 E.02457
G1 X100.468 Y116.146 E.01978
G1 X100.117 Y115.563 E.02457
G1 X99.86 Y115.079 E.01978
G1 X99.573 Y114.462 E.02457
G1 X99.37 Y113.953 E.01978
G1 X99.152 Y113.309 E.02457
G1 X99.005 Y112.781 E.01978
G1 X98.858 Y112.116 E.02457
G1 X98.769 Y111.576 E.01978
G1 X98.695 Y110.899 E.02457
G1 X98.664 Y110.352 E.01978
G1 X98.664 Y109.672 E.02457
G1 X98.693 Y109.124 E.01978
G1 X98.767 Y108.442 E.02478
G1 X98.856 Y107.896 E.01996
G1 X99.001 Y107.237 E.02436
G1 X99.145 Y106.714 E.01961
G1 X99.362 Y106.069 E.02457
G1 X99.564 Y105.56 E.01978
G1 X99.849 Y104.942 E.02457
G1 X100.105 Y104.458 E.01978
G1 X100.456 Y103.874 E.02457
G1 X100.763 Y103.42 E.01978
G1 X101.174 Y102.878 E.02457
G1 X101.528 Y102.46 E.01978
G1 X101.968 Y101.995 E.02313
G1 X102.3 Y102.309 F30000
G1 F3600
G1 X102.317 Y102.291 E.00086
G1 X102.696 Y101.931 E.01889
G1 X103.201 Y101.501 E.02394
G1 X103.617 Y101.184 E.01889
G1 X104.16 Y100.816 E.02367
G1 X104.608 Y100.546 E.01889
G1 X105.187 Y100.238 E.02368
G1 X105.662 Y100.018 E.01889
G1 X106.264 Y99.778 E.02341
G1 X106.766 Y99.608 E.01916
G1 X107.398 Y99.432 E.02367
G1 X107.909 Y99.319 E.01889
G1 X108.549 Y99.213 E.02341
G1 X109.076 Y99.156 E.01915
G1 X109.729 Y99.12 E.02361
G1 X110.264 Y99.12 E.01934
G1 X110.906 Y99.154 E.02321
G1 X111.422 Y99.209 E.01872
G1 X112.069 Y99.315 E.02367
G1 X112.58 Y99.426 E.01889
G1 X113.212 Y99.601 E.02368
G1 X113.708 Y99.767 E.01889
G1 X114.317 Y100.009 E.02367
G1 X114.793 Y100.228 E.01889
G1 X115.379 Y100.538 E.02394
G1 X115.827 Y100.808 E.01889
G1 X116.37 Y101.175 E.02368
G1 X116.787 Y101.492 E.01889
G1 X117.287 Y101.916 E.02368
G1 X117.667 Y102.275 E.01889
G1 X118.113 Y102.745 E.02341
G1 X118.457 Y103.149 E.01916
G1 X118.85 Y103.665 E.02341
G1 X119.148 Y104.104 E.01916
G1 X119.483 Y104.659 E.02341
G1 X119.729 Y105.121 E.01889
G1 X120.005 Y105.716 E.02367
G1 X120.202 Y106.208 E.01916
G1 X120.41 Y106.823 E.02341
G1 X120.55 Y107.327 E.01889
G1 X120.694 Y107.974 E.02394
G1 X120.779 Y108.49 E.01889
G1 X120.85 Y109.142 E.02368
G1 X120.879 Y109.664 E.01889
G1 X120.879 Y110.313 E.02341
G1 X120.851 Y110.843 E.01916
G1 X120.782 Y111.487 E.02341
G1 X120.696 Y112.011 E.01916
G1 X120.558 Y112.644 E.02341
G1 X120.418 Y113.149 E.01889
G1 X120.21 Y113.77 E.02367
G1 X120.014 Y114.263 E.01916
G1 X119.742 Y114.852 E.02341
G1 X119.498 Y115.315 E.01889
G1 X119.161 Y115.877 E.02368
G1 X118.868 Y116.31 E.01889
G1 X118.472 Y116.833 E.02368
G1 X118.134 Y117.232 E.01889
G1 X117.678 Y117.714 E.02394
G1 X117.298 Y118.074 E.01889
G1 X116.799 Y118.499 E.02368
G1 X116.383 Y118.816 E.01889
G1 X115.846 Y119.18 E.02341
G1 X115.392 Y119.454 E.01916
G1 X114.82 Y119.758 E.02341
G1 X114.338 Y119.982 E.01916
G1 X113.736 Y120.222 E.02341
G1 X113.241 Y120.39 E.01889
G1 X112.609 Y120.566 E.02367
G1 X112.098 Y120.68 E.01889
G1 X111.451 Y120.787 E.02368
G1 X110.931 Y120.844 E.01889
G1 X110.277 Y120.88 E.02368
G1 X109.754 Y120.881 E.01889
G1 X109.091 Y120.846 E.02394
G1 X108.571 Y120.79 E.01889
G1 X107.924 Y120.684 E.02367
G1 X107.413 Y120.572 E.01889
G1 X106.781 Y120.397 E.02368
G1 X106.285 Y120.23 E.01889
G1 X105.683 Y119.991 E.02341
G1 X105.201 Y119.769 E.01916
G1 X104.621 Y119.462 E.02368
G1 X104.173 Y119.192 E.01889
G1 X103.636 Y118.829 E.02341
G1 X103.213 Y118.509 E.01915
G1 X102.715 Y118.085 E.02361
G1 X102.326 Y117.717 E.01934
G1 X101.883 Y117.251 E.02321
G1 X101.547 Y116.856 E.01871
G1 X101.15 Y116.335 E.02367
G1 X100.856 Y115.902 E.01889
G1 X100.517 Y115.341 E.02368
G1 X100.271 Y114.879 E.01889
G1 X99.995 Y114.284 E.02368
G1 X99.801 Y113.799 E.01889
G1 X99.588 Y113.17 E.02394
G1 X99.448 Y112.666 E.01889
G1 X99.306 Y112.026 E.02368
G1 X99.221 Y111.51 E.01889
G1 X99.15 Y110.858 E.02368
G1 X99.121 Y110.336 E.01889
G1 X99.121 Y109.687 E.02341
G1 X99.149 Y109.157 E.01915
G1 X99.219 Y108.507 E.02361
G1 X99.306 Y107.979 E.01934
G1 X99.444 Y107.351 E.02321
G1 X99.582 Y106.851 E.01871
G1 X99.79 Y106.23 E.02367
G1 X99.986 Y105.737 E.01916
G1 X100.258 Y105.148 E.02341
G1 X100.502 Y104.685 E.01889
G1 X100.839 Y104.123 E.02368
G1 X101.132 Y103.69 E.01889
G1 X101.528 Y103.167 E.02368
G1 X101.866 Y102.768 E.01889
G1 X102.273 Y102.338 E.02137
G1 X102.605 Y102.651 F30000
G1 F3600
G1 X102.638 Y102.617 E.00172
G1 X102.999 Y102.273 E.01799
G1 X103.491 Y101.855 E.02331
G1 X103.887 Y101.553 E.01799
G1 X104.409 Y101.199 E.02278
G1 X104.837 Y100.942 E.018
G1 X105.394 Y100.646 E.02278
G1 X105.846 Y100.437 E.018
G1 X106.418 Y100.208 E.02225
G1 X106.905 Y100.044 E.01853
G1 X107.512 Y99.875 E.02278
G1 X107.999 Y99.767 E.018
G1 X108.607 Y99.667 E.02225
G1 X109.117 Y99.611 E.01852
G1 X109.738 Y99.577 E.02244
G1 X110.256 Y99.577 E.01871
G1 X110.866 Y99.61 E.02206
G1 X111.357 Y99.662 E.01783
G1 X111.98 Y99.763 E.02278
G1 X112.466 Y99.869 E.018
G1 X113.075 Y100.037 E.02278
G1 X113.547 Y100.196 E.01799
G1 X114.134 Y100.428 E.02278
G1 X114.586 Y100.636 E.01799
G1 X115.157 Y100.938 E.02331
G1 X115.584 Y101.195 E.01799
G1 X116.107 Y101.549 E.02278
G1 X116.504 Y101.85 E.01799
G1 X116.985 Y102.259 E.02278
G1 X117.347 Y102.601 E.018
G1 X117.771 Y103.048 E.02225
G1 X118.104 Y103.439 E.01853
G1 X118.477 Y103.929 E.02224
G1 X118.765 Y104.354 E.01853
G1 X119.084 Y104.882 E.02225
G1 X119.318 Y105.322 E.018
G1 X119.584 Y105.894 E.02277
G1 X119.774 Y106.37 E.01853
G1 X119.972 Y106.954 E.02225
G1 X120.106 Y107.434 E.01799
G1 X120.245 Y108.064 E.02331
G1 X120.326 Y108.556 E.01799
G1 X120.394 Y109.183 E.02278
G1 X120.422 Y109.681 E.018
G1 X120.422 Y110.297 E.02225
G1 X120.395 Y110.81 E.01853
G1 X120.329 Y111.422 E.02225
G1 X120.246 Y111.929 E.01853
G1 X120.115 Y112.531 E.02225
G1 X119.982 Y113.011 E.018
G1 X119.782 Y113.609 E.02278
G1 X119.592 Y114.086 E.01853
G1 X119.334 Y114.646 E.02225
G1 X119.101 Y115.087 E.018
G1 X118.777 Y115.628 E.02278
G1 X118.498 Y116.041 E.018
G1 X118.117 Y116.544 E.02278
G1 X117.795 Y116.924 E.01799
G1 X117.352 Y117.394 E.02331
G1 X116.99 Y117.736 E.01799
G1 X116.509 Y118.145 E.02278
G1 X116.113 Y118.447 E.018
G1 X115.603 Y118.793 E.02225
G1 X115.163 Y119.058 E.01853
G1 X114.619 Y119.347 E.02225
G1 X114.154 Y119.563 E.01853
G1 X113.581 Y119.792 E.02225
G1 X113.109 Y119.952 E.018
G1 X112.502 Y120.122 E.02278
G1 X112.015 Y120.23 E.018
G1 X111.393 Y120.333 E.02278
G1 X110.897 Y120.388 E.018
G1 X110.267 Y120.423 E.02278
G1 X109.769 Y120.424 E.01799
G1 X109.124 Y120.39 E.02331
G1 X108.629 Y120.336 E.01799
G1 X108.006 Y120.234 E.02278
G1 X107.519 Y120.127 E.018
G1 X106.911 Y119.959 E.02278
G1 X106.439 Y119.799 E.018
G1 X105.866 Y119.572 E.02225
G1 X105.4 Y119.357 E.01853
G1 X104.843 Y119.062 E.02278
G1 X104.416 Y118.805 E.018
G1 X103.905 Y118.46 E.02225
G1 X103.496 Y118.15 E.01852
G1 X103.023 Y117.747 E.02244
G1 X102.646 Y117.391 E.01871
G1 X102.226 Y116.948 E.02206
G1 X101.906 Y116.572 E.01782
G1 X101.523 Y116.071 E.02278
G1 X101.243 Y115.659 E.01799
G1 X100.916 Y115.118 E.02278
G1 X100.682 Y114.679 E.01799
G1 X100.416 Y114.106 E.02278
G1 X100.231 Y113.644 E.01799
G1 X100.024 Y113.032 E.02331
G1 X99.891 Y112.552 E.01799
G1 X99.755 Y111.936 E.02278
G1 X99.674 Y111.444 E.01799
G1 X99.606 Y110.817 E.02278
G1 X99.578 Y110.319 E.018
G1 X99.578 Y109.703 E.02225
G1 X99.605 Y109.191 E.01853
G1 X99.672 Y108.573 E.02244
G1 X99.756 Y108.061 E.01871
G1 X99.887 Y107.465 E.02206
G1 X100.018 Y106.989 E.01782
G1 X100.218 Y106.391 E.02277
G1 X100.408 Y105.914 E.01853
G1 X100.666 Y105.354 E.02225
G1 X100.899 Y104.913 E.018
G1 X101.223 Y104.372 E.02278
G1 X101.502 Y103.959 E.01799
G1 X101.883 Y103.456 E.02278
G1 X102.205 Y103.076 E.018
G1 X102.578 Y102.68 E.01962
G1 X102.91 Y102.994 F30000
G1 F3600
G1 X102.959 Y102.942 E.00258
G1 X103.302 Y102.616 E.01709
G1 X103.781 Y102.209 E.02268
G1 X104.157 Y101.922 E.01709
G1 X104.659 Y101.582 E.02189
G1 X105.065 Y101.338 E.0171
G1 X105.601 Y101.054 E.02189
G1 X106.031 Y100.855 E.0171
G1 X106.573 Y100.638 E.0211
G1 X107.043 Y100.48 E.0179
G1 X107.626 Y100.318 E.02187
G1 X108.089 Y100.216 E.01711
G1 X108.666 Y100.121 E.02109
G1 X109.158 Y100.067 E.01789
G1 X109.746 Y100.034 E.02127
G1 X110.247 Y100.034 E.01808
G1 X110.826 Y100.065 E.02091
G1 X111.292 Y100.115 E.01694
G1 X111.89 Y100.212 E.02188
G1 X112.353 Y100.313 E.0171
G1 X112.938 Y100.474 E.02189
G1 X113.387 Y100.624 E.0171
G1 X113.95 Y100.847 E.02189
G1 X114.38 Y101.045 E.01709
G1 X114.936 Y101.338 E.02268
G1 X115.341 Y101.583 E.01709
G1 X115.843 Y101.923 E.02189
G1 X116.22 Y102.209 E.0171
G1 X116.682 Y102.602 E.02189
G1 X117.026 Y102.928 E.0171
G1 X117.428 Y103.351 E.0211
G1 X117.75 Y103.729 E.01791
G1 X118.108 Y104.2 E.02135
G1 X118.382 Y104.604 E.01764
G1 X118.684 Y105.104 E.0211
G1 X118.91 Y105.529 E.01738
G1 X119.162 Y106.071 E.0216
G1 X119.346 Y106.532 E.0179
G1 X119.533 Y107.085 E.0211
G1 X119.661 Y107.541 E.01709
G1 X119.797 Y108.154 E.02268
G1 X119.873 Y108.622 E.01709
G1 X119.939 Y109.224 E.02189
G1 X119.964 Y109.697 E.01711
G1 X119.965 Y110.281 E.02109
G1 X119.939 Y110.777 E.01791
G1 X119.876 Y111.357 E.02108
G1 X119.797 Y111.847 E.0179
G1 X119.672 Y112.418 E.0211
G1 X119.546 Y112.874 E.01711
G1 X119.354 Y113.449 E.02187
G1 X119.17 Y113.91 E.0179
G1 X118.926 Y114.44 E.0211
G1 X118.705 Y114.859 E.0171
G1 X118.393 Y115.379 E.02189
G1 X118.128 Y115.772 E.0171
G1 X117.762 Y116.255 E.02189
G1 X117.457 Y116.617 E.01709
G1 X117.025 Y117.073 E.02268
G1 X116.682 Y117.398 E.01709
G1 X116.22 Y117.791 E.02189
G1 X115.842 Y118.078 E.01711
G1 X115.359 Y118.406 E.02109
G1 X114.935 Y118.662 E.01791
G1 X114.419 Y118.936 E.02108
G1 X113.969 Y119.145 E.0179
G1 X113.427 Y119.362 E.0211
G1 X112.978 Y119.514 E.01711
G1 X112.394 Y119.677 E.02189
G1 X111.932 Y119.78 E.0171
G1 X111.334 Y119.879 E.02189
G1 X110.863 Y119.932 E.0171
G1 X110.258 Y119.966 E.02189
